common/src/main/resources/icons/plugins/resharper/AssemblyExplorer/FolderReferencesOpened.svg

<svg xmlns="http://www.w3.org/2000/svg" width="16" height="16" fill-rule="evenodd" stroke-linejoin="round" stroke-miterlimit="1.414" clip-rule="evenodd" data-big="true" viewBox="0 0 24 24"><path fill="#9575CD" d="M20 18H4V8h16m0-2h-8l-2-2H4c-1.11 0-2 .89-2 2v12a2 2 0 0 0 2 2h16a2 2 0 0 0 2-2V8a2 2 0 0 0-2-2"/><path fill="#D1C4E9" d="M16.5 13.85c-3.312 0-6 1.344-6 3 0 1.344 1.764 2.478 4.2 2.862v1.938l2.4-2.4-2.4-2.4v1.638c-1.89-.336-3-1.14-3-1.638 0-.636 1.824-1.8 4.8-1.8s4.8 1.164 4.8 1.8c0 .438-.876 1.134-2.4 1.518v1.23c2.118-.462 3.6-1.518 3.6-2.748 0-1.656-2.688-3-6-3"/></svg>

<!--
  - The MIT License (MIT)
  -
  - Copyright (c) 2015-2024 Elior "Mallowigi" Boukhobza
  -
  - Permission is hereby granted, free of charge, to any person obtaining a copy
  - of this software and associated documentation files (the "Software"), to deal
  - in the Software without restriction, including without limitation the rights
  - to use, copy, modify, merge, publish, distribute, sublicense, and/or sell
  - copies of the Software, and to permit persons to whom the Software is
  - furnished to do so, subject to the following conditions:
  -
  - The above copyright notice and this permission notice shall be included in all
  - copies or substantial portions of the Software.
  -
  - THE SOFTWARE IS PROVIDED "AS IS", WITHOUT WARRANTY OF ANY KIND, EXPRESS OR
  - IMPLIED, INCLUDING BUT NOT LIMITED TO THE WARRANTIES OF MERCHANTABILITY,
  - FITNESS FOR A PARTICULAR PURPOSE AND NONINFRINGEMENT. IN NO EVENT SHALL THE
  - AUTHORS OR COPYRIGHT HOLDERS BE LIABLE FOR ANY CLAIM, DAMAGES OR OTHER
  - LIABILITY, WHETHER IN AN ACTION OF CONTRACT, TORT OR OTHERWISE, ARISING FROM,
  - OUT OF OR IN CONNECTION WITH THE SOFTWARE OR THE USE OR OTHER DEALINGS IN THE
  - SOFTWARE.
  -->

<svg data-big="true" xmlns="http://www.w3.org/2000/svg" clip-rule="evenodd" fill-rule="evenodd" stroke-linejoin="round"
     stroke-miterlimit="1.414" viewBox="0 0 24 24" width="16px" height="16px">
  <path fill="#9575CD"
        d="M20,18H4V8H20M20,6H12L10,4H4C2.89,4 2,4.89 2,6V18A2,2 0 0,0 4,20H20A2,2 0 0,0 22,18V8C22,6.89 21.1,6 20,6Z"/>

  <path fill="#D1C4E9"
        d="M16.5 13.85c-3.312 0-6 1.344-6 3 0 1.344 1.764 2.478 4.2 2.862v1.938l2.4-2.4-2.4-2.4v1.638c-1.89-.336-3-1.14-3-1.638 0-.636 1.824-1.8 4.8-1.8s4.8 1.164 4.8 1.8c0 .438-.876 1.134-2.4 1.518v1.23c2.118-.462 3.6-1.518 3.6-2.748 0-1.656-2.688-3-6-3z"/>
</svg>
